svg/label_off_outline.svg

<svg xmlns="http://www.w3.org/2000/svg" viewBox="0 0 24 24"><path d="M2 4.27 3.28 3 20 19.72 18.73 21l-2.1-2.1c-.2.06-.41.1-.63.1H5a2 2 0 0 1-2-2V7c0-.5.17-.93.46-1.27zM5 17h9.73L5 7.27zm14.55-5L16 7H9.82L7.83 5H16c.67 0 1.27.33 1.63.84L22 12l-3 4.2-1.41-1.44z"/></svg>

<?xml version="1.0" encoding="UTF-8"?><!DOCTYPE svg PUBLIC "-//W3C//DTD SVG 1.1//EN" "http://www.w3.org/Graphics/SVG/1.1/DTD/svg11.dtd"><svg xmlns="http://www.w3.org/2000/svg" xmlns:xlink="http://www.w3.org/1999/xlink" version="1.1" id="mdi-label-off-outline" width="24" height="24" viewBox="0 0 24 24"><path d="M2,4.27L3.28,3L20,19.72L18.73,21L16.63,18.9C16.43,18.96 16.22,19 16,19H5A2,2 0 0,1 3,17V7C3,6.5 3.17,6.07 3.46,5.73L2,4.27M5,17H14.73L5,7.27V17M19.55,12L16,7H9.82L7.83,5H16C16.67,5 17.27,5.33 17.63,5.84L22,12L19,16.2L17.59,14.76L19.55,12Z" /></svg>
